X:109
T:Valse da Vertoujit
C:traditionell
M:3/4
L:1/4
K:G
GBc|def|gef|d3|cec|BdB|AA/B/ c/A/|1B2G:|2G2||
|:d|BB/G/ B/d/|cAd|BB/G/ B/d/|cAd|BB/G/ B/d/|fed|cBA|1BG:|2G3||
